X: 9
T: The Rights Of Man
R: hornpipe
M: 4/4
L: 1/8
K: Emin
G>A | (3BcB (3ABA (3GAG (3FGF | E>F G>A B2 e>f | g>f e>d B>e g>f | (3efe (3ded (3cdc G>A |
(3BcB (3ABA (3GAG (3FGF | E>F G>A B2 e>f | g>f e>d B>g f>g |e2 E2 E2:|
|:g>a | b>g b>g e>f g>a | b>g b>g (3efg f>e |d2 d>^c d>e f>g |a>f d>f a2 g>f|
e>d e>f g>f g>a | b>g a>f g>f e>f | g>f e>d B>g f>g |e2 E2 E2:|


Tune 83	Setting 23879

